X:1
T:Carolan's Draught
C:O'Carolan
R:Reel
M:C
%%printtempo 0
Q:130
K:D
%%printtempo 0
A,2|"D"DEFG "A"ABcA|"D"d2 cB A2A2|"G"B2G2"D"A2F2|"G"G2FG "A"EFGE|
"D"DEFG "A"ABcA|"D"dcBA "E"^Gfed |"A"dcBA "E"E2 ^G2|"A"A6:|
cd|\
"A"ecde "D"fedc|"G"BdcB "D"BAGF|"Em"BABc "D"dcde|
"Bm"fedc Bcde|"Bm"f2f2 "A"e2e2|"G"d2d2 "A"c2c2|"G"BABc dcBA|
B6 "A"c2|"D"dcBA GFED|"G"B2A2 "D"A2 F2|"Em"G2F2 "G"E2D2|"A"CDEC A,2z2|
"G"B,CDB, "A"CDEC|"D"DEFD "A"EFGE|"D"A2d2 "G"fe"A"dc|"D"d4:|
